X:1
T:Piano Sonata Op78
T:Piano Sonata
T:L.v.Beethoven,Op.78.
C:L.v.Beethoven
%%score { ( 1 3 ) | ( 2 4 ) }
L:1/8
Q:1/4=40
M:2/4
K:F#
V:1 treble nm="Piano" snm="Pno."
V:3 treble 
V:2 bass 
V:4 bass 
V:1
!p!"^Adagio cantabile." ([A,C]2 [A,CF]>[Q:1/4=36][B,EG]) | %1
[Q:1/4=40] ([B,EG]2[Q:1/4=36] [CFA])[Q:1/4=34][C=EA] | %2
[Q:1/4=38] (!turn!B2[Q:1/4=36][Q:1/4=34] d>[Q:1/4=30]c) | %3
[Q:1/4=32] B/4A/4[Q:1/4=30]d/4c/4 !fermata!c ||[M:4/4][Q:1/4=118]"^Allegro ma non troppo." (A>B | %5
 c2 F2 E2 F2) |: [B,CEB]6 ([G,CG]2 |!<(! [A,CA]2 [Dd]2 [Cc]2!<)!!mp! [Ff]2 | %8
[Q:1/4=116]!>(! [Ee]2 [Dd]2!>)![Q:1/4=114] [Cc]2)!p![Q:1/4=118] A/B/A/F/ | %9
 B/c/B/G/ E2 z2 B/c/B/G/ | c/d/c/A/[Q:1/4=116] F2[Q:1/4=114] z2[Q:1/4=110]"_cresc." (3(fed | %11
[Q:1/4=118] (3cBA (3GFE (3DC^B,!mp! (3CDE) |!p![Q:1/4=116] ([CF]2 [CEG]2[Q:1/4=114] [CFA]2) z2 | %13
[Q:1/4=118]!p! [CFA]2 z2 [DGB]2 z2 |[Q:1/4=116]!p! ([CEG]2 [CFA]2[Q:1/4=114] [CGB]2) z2 | %15
[Q:1/4=118]!p! [CGB]2 z2 [CEGc]2 z2 |!p! [CFA]2 (c/d/c/A/)!<(! (f4- | %17
 f2[Q:1/4=150] !turn!e>[Q:1/4=40]f[Q:1/4=80]!<)![Q:1/4=118]!>(! g2 e2)!>)! | %18
!p! ^^c/b/a/c/ c/b/a/c/ c/b/a/c/ c/b/a/c/ | d/b/a/d/ e/b/a/e/ f/b/a/f/ d'/a/f/d/ | %20
 !>!^b/f/d/b/ d'/f/d/c'/ !>!b/f/d/b/ d'/f/d/c'/ | !>!^b/f/d/b/ d'/f/d/d'/ g/f/d/g/ a/f/d/a/ | %22
 !>!^b/f/d/b/ d'/f/d/c'/ !>!b/f/d/b/ d'/f/d/c'/ | !>!^b/f/d/b/ d'/f/d/d'/ g/f/d/g/ a/f/d/a/ | %24
 ^b/g/d/b/"_cresc." (c'/g/c/.c'/) (c'/g/c/.c'/) (c'/g/c/.c'/) | %25
 (c'/^^f/c/.c'/) (c'/f/c/.c'/) (c'/f/c/.c'/) (c'/f/c/.c'/) | %26
!f! (c'/^^f/c/.c'/) (c'/f/c/.c'/)[Q:1/4=116] (c'/f/c/.c'/)[Q:1/4=114] (c'/f/c/.c'/) | %27
!ff![Q:1/4=108] (c'/"^"[Q:1/4=116]^f/c/.c'/) (c'/f/c/.c'/) (^b/f/^B/.b/) (b/f/B/.b/) | %28
 [cec']2 z2!p![Q:1/4=114] (3(e"_dolce"cG (3AcA | (3Gcd (3ecg (3ecG (3FDG | E2) (3(Gcd (3ecG (3AcA | %31
 (3Gcd[Q:1/4=112] (3ec[Q:1/4=110]g)[Q:1/4=114]!f! (([G^^c]2[Q:1/4=110] !tenuto!.[Fd]2)) | %32
 [F^B]4[Q:1/4=118]!p! F/G/F/E/ F/d/"^"^c/B/ | %33
 c/G/c/e/[Q:1/4=116] g/c'/[Q:1/4=114]e'/d'/!f! (([g^^c']2[Q:1/4=110] !tenuto!.[fd']2)) | %34
 [f^b]4[Q:1/4=118]!p! f/g/f/e/ f/^d'/"^"c'/b/ | c'/g/e/c/ G/c/G/E/ F/G/F/E/ F/d/c/^B/ | %36
 c/G/E/[I:staff +1]C/ G,/C/G,/E,/[I:staff -1] z2!p! [G,^B,DF]2 | z2 [^B,DF]2 z2 [B,DFG]2 |1 %38
 z2!p! [=B,CEG]2[Q:1/4=116] z2[Q:1/4=112] ([A,A]>[B,B]) |[Q:1/4=118] ([Cc]2 [CF]2 [CE]2 [CF]2) :|2 %40
 z2!p! [=B,CEG]2 z2[Q:1/4=112] (=A>B |:[Q:1/4=118]!p! c2 [CF]2 [CE]2 [CF]2) | %42
"_cresc." [=DF=d]6 [DFd]2 |"^"[Q:1/4=100]!mp! (T=d4"_dim." =e3 B)[Q:1/4=118] | %44
!p! c/=e/c/e/ c/e/c/e/ c/e/c/e/ c/e/c/e/ | x6!f! b>c' |!f! ([dd']2 [Gg]2 [^^F^^f]2 [Gg]2) | %47
 g/b/a/g/ g/b/a/g/ g/b/a/g/ g/b/a/g/ | g/b/a/g/ b/g/"^"^f/^e/ b/g/f/e/ a/g/f/e/ | %49
 f/a/g/f/ g/f/e/d/ ^^c/e/d/c/ a/g/f/e/ | f/a/g/f/ g/f/e/d/ ^B/d/"^"^c/B/ g/f/=e/d/ | %51
 =e/g/f/e/ f/e/d/c/ ^B/d/c/B/ g/f/e/d/ | =e/g/f/e/ f/e/d/c/ A/c/=B/A/ f/e/d/c/ | %53
 B/d/c/B/ f/=e/d/c/ B/d/c/B/"_cresc." f/e/d/c/ | %54
 B/d/c/B/[Q:1/4=114] b/a/[Q:1/4=116]g/f/[Q:1/4=118] ^e/g/f/e/[Q:1/4=114] b/a/[Q:1/4=116]g/f/ | %55
[Q:1/4=118] e/g/f/e/[Q:1/4=108] d'/c'/[Q:1/4=114]b/a/[Q:1/4=118] g/b/a/g/ f/e/d/c/ | %56
 B/d/c/B/ A/G/F/E/ B/A/G/F/ E/D/C/^B,/ |!ff! C4 E4 | %58
[Q:1/4=110]"_dim." [EG]6[Q:1/4=114] ([FA]>[GB][Q:1/4=118] |!p![Q:1/4=118] [Ac]2 F2 E2 F2) | %60
 [B,CEB]6 ([G,CG]2 |!<(! [A,CA]2 [Dd]2 [Cc]2!<)!!mp! [Ff]2 | %62
[Q:1/4=116]!>(! [Ee]2 [Dd]2!>)![Q:1/4=114] [Cc]2)!p![Q:1/4=118] A/B/A/F/ | %63
 B/c/B/G/ E2 z2 B/c/B/G/ | c/d/c/A/ F2 z2 A/B/A/F/ | c/d/c/A/ ^^F2 z2 c/d/c/A/ | %66
 d/=e/d/B/[Q:1/4=116] G2[Q:1/4=114] z2!f![Q:1/4=110] (3(=e'd'c' | %67
[Q:1/4=118] (3b=ag (3f=ed (3cB^A (3Bcd) |!f![Q:1/4=116] ([=EGB=e]2 [FBdf]2[Q:1/4=114] [GBeg]2) z2 | %69
!p![Q:1/4=118] [B,=EG]2 z2 [CF=A]2 z2 |!f![Q:1/4=116] ([Bdf]2 [Bc^eg]2[Q:1/4=114] [=Acf=a]2) z2 | %71
!p![Q:1/4=118] [CF=A]2 z2 [=DFB]2 z2 |!f![Q:1/4=116] ([Bceg]2 [^Ac=e^a]2[Q:1/4=114] [B=db]2) z2 | %73
!p![Q:1/4=118] [FB=d]2 z2 [=GB=e]2 z2 |!f![Q:1/4=116] ([^Ac=e^a]2 [B=db]2[Q:1/4=114] [cec']2) z2 | %75
!p![Q:1/4=116] ([Ac]2 [B^d]2[Q:1/4=114] [c=e]2) z2 |[Q:1/4=118] [FAc]2 z2 [FA=e]2 z2 | %77
 [FBd]2 f/g/f/d/!<(! b4- | %78
 b2[Q:1/4=150] (!turn!a>[Q:1/4=40]b[Q:1/4=80]!<)![Q:1/4=118]!>(! c'2 a2)!>)! | %79
!p! ^^f/=e'/d'/f/ f/e'/d'/f/ f/e'/d'/f/ f/e'/d'/f/ | g/=e'/d'/g/ a/e'/d'/a/ b/e'/d'/b/ g'/d'/b/g/ | %81
 !>!^e'/b/g/e'/ g'/b/g/f'/ !>!e'/b/g/e'/ g'/b/g/f'/ | %82
 !>!e'/b/g/e'/ g'/b/g/g'/ c'/b/g/c'/ ^d'/b/g/d'/ | %83
 !>!e'/b/g/e'/ g'/b/g/f'/ !>!e'/b/g/e'/ g'/b/g/f'/ | %84
 !>!e'/b/g/e'/ g'/b/g/g'/ c'/b/g/c'/ ^d'/b/g/d'/ | %85
 e'/c'/g/e'/"_cresc." (f'/c'/f/.f'/) (f'/c'/f/.f'/) (f'/c'/f/.f'/) | %86
 (f'/^b/f/.f'/) (f'/b/f/.f'/) (f'/b/f/.f'/) (f'/b/f/.f'/) | %87
!f![Q:1/4=116] (f'/^b/f/.f'/) (f'/b/f/.f'/)[Q:1/4=114] (f'/b/f/.f'/)[Q:1/4=112] (f'/b/f/.f'/) | %88
!ff![Q:1/4=108] (f'/[Q:1/4=114]=b/f/.f'/) (f'/b/f/.f'/) (e'/b/e/.e'/)[Q:1/4=112] (e'/b/e/.e'/) | %89
 [faf']2 z2!p![Q:1/4=112] (3(a"_dolce"fc (3dfd | (3cfg (3afc' (3afc (3BGc | %91
 A2) (3(cfg (3afc (3dfd | (3cfg[Q:1/4=110] (3afc')!f![Q:1/4=112] ([cd^^f]2 !tenuto!.[Bdg]2) | %93
 [Bce]4!p![Q:1/4=118] B/c/B/A/ B/g/"^"^f/e/ | %94
 f/c/A/c/[Q:1/4=116] f/a/[Q:1/4=114]c'/f'/!f![Q:1/4=112] ([^^fac'd'^^f']2[Q:1/4=110] !tenuto!.[gbd'g']2) | %95
 [egc'e']4!p![Q:1/4=118] b/c'/b/a/ b/g'/"^"^f'/e'/ | f'/c'/a/f/ c/f/c/A/ B/c/B/A/ B/g/f/e/ | %97
 f/c/A/F/ C/F/C/A,/ z2!p! [CEGB]2 | z2 [EGB]2 z2 [EGBc]2 | z2 [FAc]2 z2!p![Q:1/4=116] (A>B) | %100
[Q:1/4=118] z2 [=EFAc]2 z2!p![Q:1/4=114] ([A,A]>[B,B] | %101
[Q:1/4=118]"_cresc." [C=Ec]2 [CEF]2 [CE=G]2 [CEF]2) | ([=E=G=e]2 [EFc]2 [=DF=d]2 [DFB]2) | %103
 ([B=db]2 [Bdg]2!f![Q:1/4=116]!>(! [gb=d']2[Q:1/4=114] [gbc']2)!>)! | %104
!p![Q:1/4=118] z2 [gbc']2 z2 [ac']2 | z2 [ac']2 | z2 [ac']2 | %107
 z2!f![Q:1/4=116] .[fac'f']2[Q:1/4=114] .[fac'f']2[Q:1/4=112] .[fac'f']2 |1 %108
[Q:1/4=110] .[fac'f']2[Q:1/4=118]"_dim." z2 z2[Q:1/4=112] (=A>!p!B) :|2 .[fac'f']2 z2 z4 |] %110
[M:2/4][Q:1/4=144]"^Allegro vivace."!f! (([F^B]3 [Ec])) | [EG] z z!p! .[FA] | %112
 [D=B]>[CA] .[B,G].[A,F] | [G,E]2 z2 |!f! ([Ac]3 [Bd]) | [c=e]2 z!p! .[df] | %116
 ([=eg]>[ce]) .[Bd].[Ac] | [Bd]2 z2 |!pp! ([FB]3 [FA]) | [Fd]2 z .[Fc] | (B>A) .G.c | %121
"_cresc." (A/.F/) (E/.F/) (B/.f/) (A/.f/) | (d/.f/) (c/.f/) (e/.g/) (e/.c'/) | %123
!f! (f/.a/) (f/.c'/) (f/.c'/) (a/.c'/) | (a/.c'/) (a/.c'/) (g/.b/) (e/.c'/) | %125
 (a/.f/) (A/.f/) (B/.f/) (A/.f/) | (d/.f/) (c/.f/) (e/.g/) (e/.c'/) | %127
 (f/.a/) (f/.c'/) (f/.c'/) (a/.c'/) | (a/.c'/) (a/.c'/) (g/.b/) (e/.c'/) | %129
 (a/.c'/) ([fa]/.c'/) (f/.g/) (f/.^b/) |[Q:1/4=140] (f/.g/) (f/.d'/)[Q:1/4=136] (f/.g/) (f/.d'/) | %131
!f![Q:1/4=132] [egc'][Q:1/4=144] (^B,/.C/) z (^^D/.E/) | z (^^F/.G/) z (^B/.c/) | %133
 z (^^d/.e/) z (^^f/.g/) | z (^b/.c'/) z (^^d'/.e'/) |!p! z (^^f'/.g'/) z (^^d'/.e'/) | %136
 z (^b/.c'/) z (^^f/.g/) | z (^^d/.e/) z (^B/.c/) | z (^B/.c/) z (B/.c/) | %139
!pp! z (^B/.c/) z (^B,/.C/) |[Q:1/4=140] z (^B/.c/)[Q:1/4=136] z (^B,/.C/) | %141
!f![Q:1/4=144] (([F^B]3 [Ec])) | [EG] z z!p! .[FA] | [D=B]>[CA] .[B,G].[A,F] | [G,E]2 z2 | %145
!f! ([Ac]3 [Bd]) | [c=e]2 z!p! .[df] | ([=eg]>[ce]) .[Bd].[Ac] | [Bd]2 z2 |!pp! ([FB]3 [FA]) | %150
 [Fd]2 z .[Fc] | (B>A) .G.c |"_cresc." (A/.F/) (E/.F/) (B/.f/) (A/.f/) | %153
 (d/.f/) (c/.f/) (e/.g/) (e/.c'/) |!f! (f/.a/) (f/.c'/) (f/.c'/) (a/.c'/) | %155
 (a/.c'/) (a/.c'/) (g/.b/) (e/.c'/) | (a/.f/) (A/.f/) (B/.f/) (A/.f/) | %157
 (d/.f/) (c/.f/) (e/.g/) (e/.c'/) | (f/.a/) (f/.c'/) (f/.a/) (f/.d'/) | %159
[Q:1/4=140] (f/.d'/) (f/.d'/)[Q:1/4=136] (f/.d'/) (f/.d'/) | %160
[Q:1/4=132] [e^^c'][Q:1/4=144] (B/.A/) z (A/.G/) | z (G/.F/) z (F/.E/) | z (E/.D/) z (D/.C/) | %163
 z (C/.B,/) z (B,/.A,/) |"_dim." z[K:bass] (A,/.^^G,/) z (A,/"^".^G,/) | %165
 z (A,/.F,/) z!mp! (A,/.E,/) |[K:treble]!f! z (A,/D/) (D/^^F/) (F/A/) | %167
 (A/d/) (d/^^f/) (f/a/) (a/d'/) | ^^f'"^"!p! (^F/.A/) (D/.A/) (F/.A/) | %169
 (D/.A/) (F/.A/) (G/.A/) (E/.A/) |!f! z (A,/D/) (D/^^F/) (F/A/) | (A/d/) (d/^^f/) (f/a/) (a/d'/) | %172
 ^^f'"^"!p! (^F/.A/) (D/.A/) (F/.A/) | (D/.A/) (F/.A/) (G/.A/) (E/.A/) | %174
 (D/.A/)"_cresc." (F/.d/) (E/.^^c/) (c/.e/) | (F/.d/) (d/.f/) (^^c/.e/) (e/.g/) | %176
!f! (F/.d/) (d/.f/) (^^c/.e/) (e/.g/) | %177
 (d/.f/) (f/.d'/)[Q:1/4=140] (e/.^^c'/)[Q:1/4=136] (g/.e'/) | %178
!p![Q:1/4=144] (D/.A/)"_cresc." (F/.d/) (E/.^^c/) (c/.e/) | (F/.d/) (d/.f/) (^^c/.e/) (e/.g/) | %180
!f! (F/.d/) (d/.f/) (^^c/.e/) (e/.g/) | (d/.f/) (f/.d'/) (e/.^^c'/) (g/.e'/) | %182
[Q:1/4=140] (d/.f/) (b/.d'/)[Q:1/4=136] (b/.d'/) (b/.d'/) | %183
!ff![Q:1/4=132] [=fb=d'=f'] z z[Q:1/4=144] (^A,/.B,/) | z (A,/.B,/) z (C/.=D/) | %185
 z (=E/.=F/) z (^A/.B/) | z (c/.=d/) z (=e/.=f/) | z (^a/.b/) z (c'/.=d'/) | %188
!p! z (=e'/.=f'/) z (=d'/.f'/) | z (=e'/.=f'/) z (=d'/.f'/) | z (=e'/.=f'/) z (=d'/.f'/) | %191
 z (=d'/.=f'/) z (=e/.=f/) | z (=e/.=f/) z (=d/.f/) | z (=e/.=f/) z (=d/.f/) | %194
!pp! z (=e/.=f/) z (=d/.f/) | z (=d/.=f/) z (d/.f/) | z (c'/.=d'/) z (a/.b/) | %197
[Q:1/4=140] z (c'/.=d'/)[Q:1/4=136] z (a/.b/) |!f![Q:1/4=144] ([^eb^e']3 [faf']) | %199
 [fac'] z z[K:bass]!p! .[B,^D] | [^G,=E]>[F,D] .[=E,C].[D,B,] | [C,A,]2 z2 | %202
[K:treble]!f! ([^dfb^d']3 [=egb=e']) | [f=ad'f']2 z[K:bass]!p! .[G,B,] | %204
 ([=A,C]>[F,A,]) .[=E,G,].[D,F,] | [=E,G,]2 z2 |[K:treble]!f! ([=eb=e']3 [dbd']) | %207
 [gbg'] z z!p! F | (=E>D) .C.F |"_cresc." (D/.B,/) (A,/.B,/) (=E/.B/) (D/.B/) | %210
 (G/.B/) (F/.B/) (A/.c/) (A/.f/) |!f! (B/.d/) (B/.f/) (B/.f/) (d/.f/) | %212
 (d/.f/) (d/.f/) (c/.=e/) (A/.f/) | (d/.B/) (D/.B/) (=E/.B/) (D/.B/) | %214
 (G/.B/) (F/.B/) (A/.c/) (A/.f/) | (B/.d/) (B/.f/) (B/.f/) (=d/.f/) | %216
 (=d/.b/) (d/.b/) ([c^e]/.b/) ([cg]/.b/) | ([cf]/.=a/) ([cf]/.a/) ([cf]/.a/) ([cf]/.a/) | %218
[Q:1/4=140] ([cf]/.=a/) ([=Ac]/.f/)[Q:1/4=136] ([Fc]/.f/) ([F^B]/.f/) | %219
!f![Q:1/4=132] [Ece][Q:1/4=144] (c/.B/) z (B/.=A/) | z (=A/.G/) z (G/.F/) | z (F/.^E/) z (E/.=D/) | %222
 z (=D/.C/) z (C/.^B,/) |"_dim." z (C/.^B,/) z (C/.=B,/) |!p! z (C/.=A,/) z (C/.G,/) | %225
[K:treble]!f! z (C/F/) (F/^A/) (A/c/) | (c/f/) (f/a/) (^a/c'/) (c'/f'/) | %227
 a'!p! (=A/.c/) (F/.c/) (A/.c/) | (F/.c/) (=A/.c/) (B/.c/) (G/.c/) |!f! z (C/F/) (F/^A/) (A/c/) | %230
 (c/f/) (f/^a/) (a/c'/) (c'/f'/) | a'!p! (=A/.c/) (F/.c/) (A/.c/) | %232
 (F/.c/) (=A/.c/) (B/.c/) (G/.c/) | (F/.c/)"_cresc." (=A/.f/) (G/.e/) (e/.g/) | %234
 (=A/.f/) (f/.=a/) (e/.g/) (g/.b/) |!f! (=A/.f/) (f/.=a/) (e/.g/) (g/.b/) | %236
[Q:1/4=140] (f/.=a/) (a/.f'/)[Q:1/4=136] (g/.e'/) (b/.g'/) | %237
!p![Q:1/4=144] (F/.=A/)"_cresc." (A/.f/) (G/.e/) (e/.g/) | (=A/.f/) (f/.=a/) (e/.g/) (g/.b/) | %239
!f! (=A/.f/) (f/.=a/) (e/.g/) (g/.b/) | (f/.=a/) (a/.f'/) (f/.a/) (a/.f'/) | %241
[Q:1/4=140] (f/.=a/) (a/.f'/)[Q:1/4=136] (f/.a/)[Q:1/4=132] (a/.f'/) | %242
!ff![Q:1/4=128] [f=a=c'f'] z z[Q:1/4=144] (B,/.=C/) | z (B,/.=C/) z (^E/.F/) | %244
 z (G/.=A/) z (B/.=c/) | z (^e/.f/) z (g/.=a/) | z (b/.=c'/) z (^e'/.f'/) | %247
!p! z (g'/.=a'/) z (e'/.f'/) | z (g'/.=a'/) z (e'/.f'/) | z (b/.=c'/) z (=a/.c'/) | %250
 z (b/.=c'/) z (b/.c'/) | z (=a/.=c'/) z (b/.c'/) | z (=a/.=c'/) z (B/.=c/) | %253
 z (=A/.=c/) z (B/.c/) | z (=A/.=c/) z (B/.c/) |!p! z (=A/.=c/) z (A/.c/) | z (=A/.=c/) z (A/.c/) | %257
!pp! z (g/.=a/) z (b/.=c'/) |[Q:1/4=140] z (g/.=a/)[Q:1/4=136] z (b/.=c'/) | %259
!f![Q:1/4=144] ([^Bf^b]3 [c^ec']) | [ceg]2 z[K:bass]!p! ([C,^A,] | [D,=B,]>[C,A,] [B,,G,][A,,F,] | %262
 [G,,E,]2) z2 |[K:treble]!f! ([cac']3 [dbd']) | [=ec'=e']2 z[K:bass]!p! ([D,F,] | %265
 [=E,G,]>[C,E,] [B,,D,][A,,C,] | [B,,D,]2) z2 |[K:treble]!pp! ([Bb]3 [Aa]) | [dd']2 z[K:bass] (C | %269
 B,>A,G,C | A,3) (D | B,>A,G,C | A,3)"_cresc." (F | =E>DCF | =E3)[K:treble] f | (f>=edf | g>f^eg) | %277
!f! (g>fe!>!c' | a>gf!>!c' | g>fe!>!c' | f>ed!>!c' | e>d!>![cc'][cb]) | %282
[Q:1/4=140]"_dim." (b>ag)!p![Q:1/4=136] c |[Q:1/4=132] c2[Q:1/4=128] (.c[Q:1/4=124].c) | %284
 !fermata![EGc]4 |!pp! !fermata![F=Ad]4 | %286
[Q:1/4=120] x2[Q:1/4=140] x2[Q:1/4=130] x2[Q:1/4=144] (5:4:5E/G/B/c/e/[Q:1/4=140] x2[Q:1/4=144] (5:4:5e/g/b/c'/e'/ !fermata!z[Q:1/4=130][Q:1/4=144][Q:1/4=140] | %287
!f![Q:1/4=150] (=A,/.F/) (A,/.F/) (A,/.F/) (^A,/.F/) | (B,/.F/) (D/.B/) (G/.B/) (E/.c/) | %289
!ff! (=A/.f/) (A/.f/) (A/.f/) (^A/.f/) | (B/.f/) (d/.b/) (g/.b/) (e/.c'/) | %291
[Q:1/4=145] (f/.a/) (a/.c'/)[Q:1/4=140] (a/.c'/)[Q:1/4=130] ([gb]/.e'/) | .[faf'] z z2 |] %293
V:2
!p! [F,,,F,,]4 | [F,,,F,,]4 | [F,,,F,,]4 | !fermata![F,,,F,,]2 ||[M:4/4] z2 | %5
!ped! F,,F,A,F,!ped-up!!ped! B,F,!ped-up!!ped!A,F,!ped-up! |: %6
!ped! G,C,G,C, G,C,!ped-up!!ped!E,C,!ped-up! | %7
!<(!!ped! F,,F,B,,F, A,,F,!<)!!ped-up!!p!!ped!D,F,!ped-up! | %8
!>(!!ped! C,F,!ped-up!!ped!B,,F,!>)!!ped-up!!ped! A,,F,!ped-up!"^leggiermente" z2 | %9
 z2!p! C,/E,/G,/B,/ B,,2 z2 | z2 A,,/C,/F,/A,/ A,,2 (3(F,,G,,A,,) | %11
!ped! B,,4!ped-up!!ped! (C,2 =B,2)!ped-up! | ([F,A,]2 [C,G,]2 [F,,F,]2) z2 | %13
 [F,A,]2 z2 [B,,D,G,]2 z2 | (C,2 F,,2 C,,2) z2 | [E,G,B,]2 z2 [C,E,G,B,]2 z2 | %16
 [F,A,]2 z2[K:treble] z2 (([FA]2 | [GB]6))!>(! ([GB]2!>)! |!p! (([GA]4) [EG]2))[K:bass] ([A,EG]2 | %19
 [A,DF]2 [G,^^CE]2 [F,A,D]2) [F,A,D]2 | !>![F,^^G,D]2"^" [F,^G,D]2 !>![F,^^G,D]2"^" [F,^G,D]2 | %21
 !>![F,^^G,D]2"^" [F,^G,D]2 z2 [F,A,D]2 | %22
 !>![F,^^G,D]2"^" [F,^G,D]2 !>![F,^^G,D]2"^" [F,^G,D]2 | %23
 !>![F,^^G,D]2"^" [F,^G,D]2 z2 [F,A,D]2 |"_tenuto." [F,G,D]2"_cresc." [E,G,C]2 [E,G,C]2 [E,G,C]2 | %25
 [=E,^^F,C]2 [E,F,C]2 [E,F,C]2 [E,F,C]2 | %26
!f! [=A,,C,=E,^^F,]2 [A,,C,E,F,]2 [A,,C,E,F,]2 [A,,C,E,F,]2 | %27
!ff!!ped! !trill(!T[G,D]8!ped-up!!ped!!ped-up!!ped!!ped-up!!ped!!ped-up! | %28
 [C,C]2 z2[K:treble]!ped! (3(CDE!ped-up!!ped! (3FCF!ped-up! | %29
!ped! E2)!ped-up!!ped! z2!ped-up![K:bass]!ped! (3(C,D,E,!ped-up!!ped! (3F,D,G,!ped-up! | %30
!ped! E,2)!ped-up!!ped! z2!ped-up![K:treble]!ped! (3(CDE!ped-up!!ped! (3FCF!ped-up! | %31
!ped! E2)!ped-up!!ped! z2!ped-up![K:bass] ([A,E]2 !tenuto!.[D,D]2) | %32
 [G,D]4!p!!ped! [G,,D,F,]4!ped-up! | [C,E,]2 z2[K:treble] ([Ae]2 !tenuto!.[Dd]2) | %34
 [Gd]4[K:bass]!p!!ped! [G,DF]4!ped-up! | [CE]2 z2!ped! [G,,D,F,]4!ped-up! | %36
 [C,E,]2 z2!p! F,,/G,,/F,,/E,,/ F,,/G,,/A,,/^B,,/ | %37
 C,/D,/E,/F,/ G,/F,/E,/D,/ C,/^B,,/A,,/G,,/ A,,/G,,/A,,/B,,/ |1 %38
 C,/D,/E,/F,/!>(! G,/F,/E,/F,/ G,/F,/E,/D,/ C,/=B,,/A,,/G,,/!>)! | %39
!p!!ped! (F,,F,A,F,!ped-up!!ped! B,F,!ped-up!!ped!A,F,)!ped-up! :|2 %40
 C,/D,/E,/F,/!>(! G,/=A,/=B,/C/ =D/C/B,/A,/ C/B,/A,/G,/!>)! |: %41
!p!!ped! [F,,F,] (F,=A,F,!ped-up!!ped! B,F,!ped-up!!ped!A,F,)!ped-up! | %42
"_cresc."!ped! B,,F,B,F, B,F,!ped-up!!ped!=A,F,!ped-up! | %43
!p!!ped! G,=E,!ped-up!!ped!F,E,!ped-up!!ped! =E,,E,G,,G,!ped-up! | %44
!p! [=A,,=A,]2 z2[K:treble]!pp! G2 z2 | ^^F2[K:bass]!p! (B,,>C, D,2!ped! G,,2)!ped-up! | %46
!f!!ped! [G,B,]/D/[G,B,]/D/ [G,B,]/D/[G,B,]/D/!ped-up!!ped! [A,C]/D/[A,C]/D/!ped-up!!ped! [G,B,]/D/[G,B,]/D/!ped-up! | %47
 ^E2 z2 z2[K:treble] (^E>F) | [^EG]2 z2 z2 (E>A) | %49
 F z[K:bass] ([D,F,]>A,) [E,G,] z[K:treble] ([^^CE]>A) | %50
 [DF] z[K:bass] ([D,F,]>A,) [D,F,] z[K:treble] ([^B,D]>G) | %51
 [C=E] z[K:bass] ([C,=E,]>G,) [D,F,] z[K:treble] ([^B,D]>F) | %52
 [C=E] z[K:bass] ([C,=E,]>G,) [C,E,F,] z[K:treble] ([A,C]>F) | %53
 [B,D] z[K:bass] ([A,,C,]>F,) [B,,D,] z[K:treble] F/=E/D/C/ | B, z B/A/G/F/ ^E z B/A/G/F/ | %55
 E z d/c/B/A/ G/B/A/G/ F/E/D/C/ |[K:bass] B,/D/C/B,/ A,/G,/F,/E,/ B,/A,/G,/F,/ E,/D,/C,/^B,,/ | %57
!ff!!ped! C,4 E,4!ped-up! | (3(G,A,G,"_dim." (3F,E,D, (3C,D,C, (3=B,,A,,G,,) | %59
!p!!ped! (F,,F,A,F,!ped-up!!ped! B,F,!ped-up!!ped!A,F,)!ped-up! | %60
!ped! G,C,G,C, G,C,!ped-up!!ped!E,C,!ped-up! | %61
!<(!!ped! F,,F,B,,F, A,,F,!<)!!ped-up!!p!!ped!D,F,!ped-up! | %62
!>(!!ped! C,F,!ped-up!!ped!B,,F,!>)!!ped-up!!ped! A,,"^leggiermente"F,!ped-up! z2 | %63
 z2!p! C,/E,/G,/B,/ B,,2 z2 | z2 A,,/C,/F,/A,/ A,,2 z2 | z2 D,/^^F,/A,/C/ C,2 z2 | %66
 z2 B,,/D,/G,/B,/ B,,2!f! [G,,B,,=E,G,]2 | %67
"^"!ped! [=A,,C,^F,=A,]4!ped-up!!ped! [B,,F,A,B,]4!ped-up! | %68
!f! ([=E,G,B,]2 [B,,D,F,B,]2 [=E,,G,,B,,E,]2) z2 | [=E,G,]2 z2 [=A,,C,F,]2 z2 | %70
!f! ([B,DF]2 [G,B,C^E]2 [F,=A,CF]2) z2 | [F,=A,]2 z2 [B,,G,]2 z2 |!f! ([CE]2 [F,C=E]2 [B,=D]2) z2 | %73
 [B,=D]2 z2 [=E,=G,C]2 z2 |!f! ([F,^A,C]2 [B,,F,B,]2 [A,,F,A,]2) z2 | ([C=E]2 [B,^D]2 [A,C]2) z2 | %76
 [A,C]2 z2 [F,A,]2 z2 | [B,D]2 z2[K:treble] z2 (([Bd]2 | [c=e]6))!>(! ([ce]2!>)! | %79
!p! (([cd]4) [Ac]2)) ([DAc]2 | [DGB]2 [C^^FA]2 [B,DG]2) [B,DG]2 | %81
 !>![B,=DG]2 [B,CG]2 !>![B,DG]2 [B,CG]2 | !>![B,=DG]2 [B,CG]2 z2 [B,^DG]2 | %83
 !>![B,=DG]2 [B,CG]2 !>![B,DG]2 [B,CG]2 | !>![B,=DG]2 [B,CG]2 z2 [B,^DG]2 | %85
"^tenuto." [B,CG]2"_cresc." [A,CF]2 [A,CF]2 [A,CF]2 | [=A,^B,F]2 [A,B,F]2 [A,B,F]2 [A,B,F]2 | %87
[K:bass]!f! [=D,,F,,=A,,^B,,]2 [D,,F,,A,,B,,]2 [D,,F,,A,,B,,]2 [D,,F,,A,,B,,]2 | %88
!ff!"^"!ped! !trill(!T[C,G,]8!ped-up!!ped!!ped-up!!ped!!ped-up!!ped!!ped-up! | %89
 [F,,F,]2 z2[K:treble]!ped! (3(FGA!ped-up!!ped! (3BFB!ped-up! | %90
!ped! A2)!ped-up!!ped! z2!ped-up![K:bass]!ped! (3(F,G,A,!ped-up!!ped! (3B,G,C!ped-up! | %91
!ped! A,2)!ped-up!!ped! z2!ped-up![K:treble]!ped! (3(FGA!ped-up!!ped! (3BFB!ped-up! | %92
!ped! A2)!ped-up!!ped! z2!ped-up! ([D^^FA]2 !tenuto!.[G,B,DG]2) | %93
 [CEG]4[K:bass]!p!!ped! [C,G,B,]4!ped-up! | %94
!ped! [F,A,]2!ped-up! z2[K:treble] ([C^^FAcd]2 !tenuto!.[GBd]2) | %95
 [CEGBc]4[K:bass]!p!!ped! [C,G,B,]4!ped-up! |!ped! [F,A,]2!ped-up! z2!ped! [C,,G,,B,,]4!ped-up! | %97
!ped! [F,,A,,]2!ped-up! z2!p! B,,/C,/B,,/A,,/ B,,/C,/D,/E,/ | %98
 F,/G,/A,/B,/ C/B,/A,/G,/ F,/E,/D,/C,/ D,/C,/D,/E,/ | %99
 F,/G,/A,/B,/ C/D/C/B,/ A,/B,/C/B,/ A,/B,/A,/G,/ | %100
 F,/G,/A,/B,/ C/B,/A,/G,/ F,/A,/G,/F,/!ped! =E,/D,/C,/B,,/!ped-up! | %101
!ped! A,,/B,,/C,/B,,/!ped-up!!ped! A,,/C,/=E,/F,/!ped-up!!ped! =G,/E,/C,/B,,/!ped-up!!ped! A,,/C,/E,/F,/!ped-up! | %102
!ped! =G,/=E,/C,/B,,/!ped-up!!ped! A,,/C,/F,/A,/!ped-up!!ped! B,,/=D,/F,/B,/!ped-up!!ped! D,/F,/B,/=D/!ped-up! | %103
!ped! ^E,/^G,/B,/=D/!ped-up![K:treble]!ped! ^E/G/B/G/!ped-up!!ped! E/G/B/G/!ped-up!!ped! E/G/B/!mp!G/!ped-up! | %104
 E/B/A/G/ c/B/A/G/ F/c/B/A/ f/e/^d/c/ | B/A/d/c/ B/A/G/F/ | E/F/G/F/ ^B,/C/D/C/ | %107
[K:bass] ^^G,/A,/=B,/A,/ E,/F,/^G,/F,/ ^B,,/C,/D,/C,/ ^^G,,/A,,/=B,,/A,,/ |1 %108
 F,,2 E,/F,/!>(!G,/F,/ E,/F,/G,/F,/ E,/F,/G,/!p!F,/!>)! :|2 F,,2 z2 z4 |] %110
[M:2/4] ([=D,F,]3 [C,G,]) | [=B,,C,] z z .[A,,C,] | G,,>A,, .B,,.^B,, | C,2 z2 | %114
[K:treble] ([=E=G]3 [DF]) | [C=E]2 z[K:bass] .[B,D] | (G,>C) .D.=E | [B,D]2 z2 | (D3 C) | %119
 B,2 z .A, | (G,>A,) .B,.C, | (F,CDC | B,A,G,C, | F,C,A,,C, | F,,C,C,,C, | F,,) (CDC | B,A,G,C, | %127
 F,C,A,,C, | F,,C,C,,C, | F,,)F,D,,D, | ^B,,,^B,,G,,,G,, | [C,,C,] z[K:treble] (^B,/.C/) z | %132
 (^^D/.E/) z (^^F/.G/) z | (^B/.c/) z (^^d/.e/) z | (^^f/.g/) z (^b/.c'/) z | %135
 (^^d'/.e'/) z (^b/.c'/) z | (^^f/.g/) z (^^d/.e/) z | (^B/.c/) z (^^F/.G/) z | %138
 (^^D/.E/) z[K:bass] (^B,/.C/) z | (^B,/.C/) z (^B,,/.C,/) z | (^B,/.C/) z (^B,,/.C,/) z | %141
 ([=D,F,]3 [C,G,]) | [=B,,C,] z z .[A,,C,] | G,,>A,, .B,,.^B,, | C,2 z2 | %145
[K:treble] ([=E=G]3 [DF]) | [C=E]2 z[K:bass] .[B,D] | (G,>C) .D.=E | [B,D]2 z2 | (D3 C) | %150
 B,2 z .A, | (G,>A,) .B,.C, | (F,CDC | B,A,G,C, | F,C,A,,C, | F,,C,C,,C, | F,,) (CDC | B,A,G,C, | %158
 F,F,,D,D,, | B,,B,,,^^G,,^^G,,, | [A,,,A,,]) z[K:treble] (A/"^".^G/) z | (G/.F/) z (F/.E/) z | %162
 (E/.D/) z (D/.C/) z |[K:bass] (C/.B,/) z (B,/.A,/) z | (A,/.^^G,/) z (A,/"^".^G,/) z | %165
 (A,/.F,/) z (A,/.E,/) z |!ped! D,, .^^F,.A,.D |[K:treble] .^^F.A.d.^^f | %168
 x!ped-up![K:bass] (D,"^"^F,D, | F,D,^E,^^C,) |!ped! D,, .^^F,.A,.D |[K:treble] .^^F.A.d.^^f | %172
 x!ped-up![K:bass] (D,"^"^F,D, | F,D,^E,^^C, | D,)(D,A,A,, | D,D,,A,,A,,, | D,)(D,A,A,, | %177
 D,D,,A,,A,,, | D,)(D,A,A,, | D,D,,A,,A,,, | D,,)(D,A,A,, | D,D,,C,C,, | B,,B,,,B,,B,,,) | %183
!ped! [=G,,,=G,,] z z2!ped-up! | (A,/.B,/) z (C/.=D/) z |[K:treble] (=E/.=F/) z (^A/.B/) z | %186
 (c/.=d/) z (=e/.=f/) z | (^a/.b/) z (c'/.=d'/) z | (c'/.=d'/) z (b/.d'/) z | %189
 (c'/.=d'/) z (b/.d'/) z | (c'/.=d'/) z (^a/.b/) z | (^f/.=g/) z (=e/.=f/) z | %192
 (c/.=d/) z (^A/.B/) z | (c/.=d/) z (A/.B/) z | (c/.=d/) z (a/.b/) z | (c'/.=d'/) z (a/.b/) z | %196
 (c/.=d/) z (A/.B/) z | (c/.=d/) z (A/.B/) z | ([=GB]3 [FAc]) | [FAc] z z[K:bass] .B,,, | %200
 C,,>D,, .=E,,.^E,, | F,,2 z2 |[K:treble] ([=AB]3 [GB]) | [F=AB]2 z[K:bass] .=E,, | %204
 (=A,,,>=A,,) .B,,.B,,, | E,,2 z2 |[K:treble] ([GB]3 [FB]) | [=EB] z z[K:bass] [F,B,] | %208
 [G,B,]2 .[G,B,].^A, | (B,,F,G,F, | =E,D,C,F,, | B,,F,,D,,F,, | B,,,F,,F,,,F,, | B,,,)(F,G,F, | %214
 =E,D,C,F,, | B,,F,,=D,,F,, | B,,,F,,C,,^E,, | F,,C,=A,,C, | F,,F,=D,,=D, | %219
 [C,,C,]) z[K:treble] (=B/.=A/) z | (=A/.G/) z (G/.F/) z | (F/.^E/) z (E/.=D/) z | %222
 (=D/.C/) z[K:bass] (C/.^B,/) z | (C/.^B,/) z (C/.=B,/) z | (C/.=A,/) z (C/.G,/) z | %225
!ped! F,, .^A,.C.F |[K:treble] .^A.c.f.a | x!ped-up![K:bass] (F,=A,F, | =A,F,G,E,) | %229
!ped! F,,[K:treble] .^A,.C.F |[K:treble] .^A.c.f.a | x!ped-up![K:bass] (F,=A,F, | =A,F,G,E, | %233
 F,)(F,CC, | F,F,,C,C,, | F,)(F,CC, | F,F,,C,C,, | F,)(F,CC, | F,F,,C,C,, | F,) (F,CC, | %240
 F,F,,C,C,, | =D,=D,,D,D,,) |!ped! [=D,,=D,] z z2!ped-up! |[K:treble] (B,/.=C/) z (^E/.F/) z | %244
 (G/.=A/) z (B/.=c/) z | (^e/.f/) z (g/.=a/) z | (b/.=c'/) z (^e'/.f'/) z | %247
 (g'/.=a'/) z (e'/.f'/) z | (b/.=c'/) z (g/.=a/) z | (g/.=a/) z (e/.f/) z | (B/.=c/) z (G/.=A/) z | %251
 (E/.F/) z (G/.=A/) z | (F/.=A/) z (g/.=a/) z | (e/.f/) z (g/.=a/) z | (e/.f/) z (g/.=a/) z | %255
 (e/.f/) z (g/.=a/) z | (e/.f/) z (g/.=a/) z | (G/.=A/) z (B/.=c/) z | (G/.=A/) z (B/.=c/) z | %259
 ([=DF]3 [C^EG]) | [CEG]2 z[K:bass] (F,, | B,,,>C,, D,,^B,,, | C,,2) z2 | %263
[K:treble] ([C=EF]3 [B,DF]) | [A,CF]2 z[K:bass] (B,,, | =E,,>C,, F,,F,, | B,,,2) z2 | %267
[K:treble] ([DF]3 [CF]) | [B,F]2 z[K:bass] A,, | (G,,>A,, B,,C, | F,,>G,, A,,B,,) | %271
 (G,,>A,, B,,C, | F,,>G,, A,,B,,) | (C,>D,=E,F, | G,>A,B,C) |[K:treble] D>=EFB | ^E>FGc | %277
 (E>FG!>!c | F>GA!>!c | E>FG!>!c | D>EF!>!c | C>DE!>![EG]) | ([EG]>[FA][GB])[K:bass] [E,G,] | %283
 ([E,G,]>[F,A,]) (.[G,B,].[A,C]) | !fermata![B,C]4 |!ped! !fermata![=A,=C]4!ped-up! | %286
!ped! (5:4:5(^C,,/E,,/"^cresc."G,,/B,,/C,/ (5:4:5E,/G,/B,/C/E/) (5:4:5C,/E,/G,/B,/C/ x2[K:treble] (5:4:5C/E/G/B/c/ x2 x!ped-up! | %287
[K:bass] (=C,3 ^C, | D,B,,E,C,) | (=C3 ^C | DB,EC) | .F.C.F,.C, |!ped! .F,,!ped-up! z z2 |] %293
V:3
 x4 | x4 | [DF]2 [^EG]2 | F x ||[M:4/4] x2 | x2 C2 C2 C2 |: x8 | x8 | x8 | x8 | x8 | x8 | x8 | x8 | %14
 x8 | x8 | x8 | x2 (6:4:6x/x/x/x/x/.x/ x4 | x8 | x8 | x8 | x8 | x8 | x8 | x8 | x8 | x8 | x8 | x8 | %29
 x8 | x8 | x8 | x8 | x8 | x8 | x8 | x8 | x8 |1 x8 | x8 :|2 x8 |: x8 | x8 | B4 G2 =E2 | x8 | %45
 c/d/c/d/ B/d/B/d/ B/d/B/d/ B/d/B/ z/ | x8 | x8 | x8 | x8 | x8 | x8 | x8 | x8 | x8 | x8 | x8 | C8 | %58
 C8 | C2 C2 C2 C2 | x8 | x8 | x8 | x8 | x8 | x8 | x8 | x8 | x8 | x8 | x8 | x8 | x8 | x8 | x8 | x8 | %76
 x8 | x8 | x2 (6:4:6x/x/x/x/x/.x/ x4 | x8 | x8 | x8 | x8 | x8 | x8 | x8 | x8 | x8 | x8 | x8 | x8 | %91
 x8 | x8 | x8 | x8 | x8 | x8 | x8 | x8 | x8 | x8 | x8 | x8 | x8 | x8 | x4 | x4 | x8 |1 x8 :|2 x8 |] %110
[M:2/4] x4 | x4 | x4 | x4 | x4 | x4 | x4 | x4 | x4 | x4 | F2 .F.^E | x4 | x4 | x4 | x4 | x4 | x4 | %127
 x4 | x4 | x4 | x4 | x4 | x4 | x4 | x4 | x4 | x4 | x4 | x4 | x4 | x4 | x4 | x4 | x4 | x4 | x4 | %146
 x4 | x4 | x4 | x4 | x4 | F2 .F.^E | x4 | x4 | x4 | x4 | x4 | x4 | x4 | x4 | x4 | x4 | x4 | x4 | %164
 x[K:bass] x3 | x4 |[K:treble] x4 | x4 | x4 | x4 | x4 | x4 | x4 | x4 | x4 | x4 | x4 | x4 | x4 | %179
 x4 | x4 | x4 | x4 | x4 | x4 | x4 | x4 | x4 | x4 | x4 | x4 | x4 | x4 | x4 | x4 | x4 | x4 | x4 | %198
 x4 | x3[K:bass] x | x4 | x4 |[K:treble] x4 | x3[K:bass] x | x4 | x4 |[K:treble] x4 | x4 | x4 | %209
 x4 | x4 | x4 | x4 | x4 | x4 | x4 | x4 | x4 | x4 | x4 | x4 | x4 | x4 | x4 | x4 |[K:treble] x4 | %226
 x4 | x4 | x4 | x4 | x4 | x4 | x4 | x4 | x4 | x4 | x4 | x4 | x4 | x4 | x4 | x4 | x4 | x4 | x4 | %245
 x4 | x4 | x4 | x4 | x4 | x4 | x4 | x4 | x4 | x4 | x4 | x4 | x4 | x4 | x4 | x3[K:bass] x | x4 | %262
 x4 |[K:treble] x4 | x3[K:bass] x | x4 | x4 |[K:treble] x4 | x3[K:bass] F, | F,3 E, | F,3 F, | %271
 F,3 E, | F,3 [F,D] | [F,A,]3 [A,C] | [A,C]3[K:treble] [A=e] | [Bd]3 d | [Bc]3 e | x4 | x4 | x4 | %280
 x4 | x4 | c3 B | (B>A) .[GB].[FA] | x4 | x4 | x13 | x4 | x4 | x4 | x4 | x4 | x4 |] %293
V:4
 x4 | x4 | x4 | x2 ||[M:4/4] x2 | x8 |: x8 | F,,6 F,,2 | F,,2 F,,2 F,,2 x2 | x8 | x8 | x4 C,4 | %12
 x8 | x8 | x8 | x8 | x4[K:treble] x4 | x8 | x6[K:bass] x2 | x8 | x8 | x8 | x8 | x8 | x8 | x8 | x8 | %27
 (6:4:6x/x/x/x/x/x/ (6:4:6x/x/x/x/x/x/ (6:4:6x/x/x/x/x/x/ (7:4:7x/x/x/x/x/x/!trill)!x/ | %28
 x4[K:treble] x4 | C2 x2[K:bass] z2 G,,2 | C,2 x2[K:treble] x4 | C2 x2[K:bass] x4 | x8 | %33
 x4[K:treble] x4 | x4[K:bass] x4 | x8 | x8 | x8 |1 x8 | x8 :|2 x8 |: x8 | B,,6 =A,,2 | %43
 G,,2 F,,2 x4 | x4[K:treble] x4 | x2[K:bass] x6 | x8 | ^^C2 x2 x2[K:treble] ^^C2 | ^^C2 x2 x2 C2 | %49
 D x[K:bass] x2 x4[K:treble] | x2[K:bass] x4[K:treble] x2 | x2[K:bass] x4[K:treble] x2 | %52
 x2[K:bass] x4[K:treble] x2 | x2[K:bass] x4[K:treble] x2 | x8 | x8 |[K:bass] x8 | C,8 | x8 | x8 | %60
 x8 | F,,6 F,,2 | F,,2 F,,2 F,,2 x2 | x8 | x6 x2 | x8 | x8 | x8 | x8 | x8 | x8 | x8 | x8 | x8 | %74
 x8 | x8 | x8 | x4[K:treble] x4 | x8 | x8 | x8 | x8 | x8 | x8 | x8 | x8 | x8 |[K:bass] x8 | %88
 (6:4:6x/x/x/x/x/x/ (6:4:6x/x/x/x/x/x/ (6:4:6x/x/x/x/x/x/ (7:4:7x/x/x/x/x/x/!trill)!x/ | %89
 x4[K:treble] x4 | F2 x2[K:bass] z2 C,2 | F,2 x2[K:treble] x4 | F2 x2 x4 | x4[K:bass] x4 | %94
 x4[K:treble] x4 | x4[K:bass] x4 | x8 | x8 | x8 | x8 | x8 | x8 | x8 | x2[K:treble] x6 | x8 | x4 | %106
 x4 |[K:bass] x8 |1 x8 :|2 x8 |][M:2/4] x4 | x4 | x4 | x4 |[K:treble] x4 | x3[K:bass] x | %116
 =E,2 .F,.F, | x4 | x4 | x4 | x4 | x4 | x4 | x4 | x4 | x4 | x4 | x4 | x4 | x4 | x4 | %131
 x2[K:treble] x2 | x4 | x4 | x4 | x4 | x4 | x4 | x2[K:bass] x2 | x4 | x4 | x4 | x4 | x4 | x4 | %145
[K:treble] x4 | x3[K:bass] x | =E,2 .F,.F, | x4 | x4 | x4 | x4 | x4 | x4 | x4 | x4 | x4 | x4 | x4 | %159
 x4 | x2[K:treble] x2 | x4 | x4 |[K:bass] x4 | x4 | x4 | x4 |[K:treble] x4 | a[K:bass] z z2 | %169
 z2 A,,2 | x4 |[K:treble] x4 | a[K:bass] z z2 | z2 A,,2 | x4 | x4 | x4 | x4 | x4 | x4 | x4 | x4 | %182
 x4 | x4 | x4 |[K:treble] x4 | x4 | x4 | x4 | x4 | x4 | x4 | x4 | x4 | x4 | x4 | x4 | x4 | x4 | %199
 x3[K:bass] x | x4 | x4 |[K:treble] x4 | x3[K:bass] x | x4 | x4 |[K:treble] x4 | x3[K:bass] B,,, | %208
 (C,,>D,,) .=E,,.F,, | x4 | x4 | x4 | x4 | x4 | x4 | x4 | x4 | x4 | x4 | x2[K:treble] x2 | x4 | %221
 x4 | x2[K:bass] x2 | x4 | x4 | x4 |[K:treble] x4 | c'[K:bass] z z2 | z2 C,2 | x[K:treble] x3 | %230
[K:treble] x4 | c'[K:bass] z z2 | z2 C,2 | x4 | x4 | x4 | x4 | x4 | x4 | x4 | x4 | x4 | x4 | %243
[K:treble] x4 | x4 | x4 | x4 | x4 | x4 | x4 | x4 | x4 | x4 | x4 | x4 | x4 | x4 | x4 | x4 | x4 | %260
 x3[K:bass] x | x4 | x4 |[K:treble] x4 | x3[K:bass] x | x4 | x4 |[K:treble] x4 | x3[K:bass] x | %269
 x4 | x4 | x4 | x4 | x4 | x4 |[K:treble] x4 | x4 | x4 | x4 | x4 | x4 | x4 | x3[K:bass] x | x4 | %284
 x4 | x4 | x8[K:treble] x5 |[K:bass] F,,4- | F,,4 | F,4- | F,4 | x4 | x4 |] %293

